img/logo.svg

<svg width="131" height="55" viewBox="0 0 131 55" fill="none" xmlns="http://www.w3.org/2000/svg">
<path d="M15.3634 0.436064C18.5495 0.436064 21.3337 1.07562 23.716 2.35475C26.0984 3.63387 27.9354 5.43627 29.227 7.76195C30.5473 10.0586 31.2075 12.7185 31.2075 15.7419C31.2075 18.7362 30.5473 21.3962 29.227 23.7219C27.9354 26.0476 26.084 27.85 23.673 29.1291C21.2906 30.4082 18.5208 31.0478 15.3634 31.0478H4.04007V0.436064H15.3634ZM14.8898 24.594C17.674 24.594 19.8411 23.8237 21.3911 22.2829C22.941 20.7421 23.716 18.5618 23.716 15.7419C23.716 12.922 22.941 10.7272 21.3911 9.15735C19.8411 7.58752 17.674 6.8026 14.8898 6.8026H11.4024V24.594H14.8898Z" fill="#083C6E"/>
<path d="M49.1425 6.41015V12.6023H59.002V18.3583H49.1425V25.0737H60.2936V31.0478H41.7801V0.436064H60.2936V6.41015H49.1425Z" fill="#083C6E"/>
<path d="M82.4674 31.353C80.2572 31.353 78.2767 30.9897 76.5258 30.2629C74.775 29.5361 73.3685 28.4605 72.3065 27.036C71.2732 25.6115 70.7278 23.8963 70.6704 21.8904H78.5064C78.6212 23.0242 79.0087 23.8963 79.6688 24.5068C80.329 25.0882 81.1901 25.379 82.2521 25.379C83.3428 25.379 84.2039 25.1319 84.8354 24.6376C85.4669 24.1144 85.7826 23.4021 85.7826 22.5009C85.7826 21.7451 85.5243 21.1201 85.0076 20.6259C84.5197 20.1316 83.9025 19.7247 83.1563 19.4049C82.4387 19.0851 81.4054 18.7217 80.0563 18.3147C78.1045 17.7042 76.5115 17.0937 75.2773 16.4832C74.043 15.8727 72.981 14.9715 72.0912 13.7796C71.2014 12.5877 70.7565 11.0324 70.7565 9.11375C70.7565 6.26479 71.7755 4.04086 73.8134 2.44196C75.8513 0.813987 78.5064 0 81.7785 0C85.1081 0 87.7918 0.813987 89.8297 2.44196C91.8676 4.04086 92.9584 6.27933 93.1019 9.15735H85.1368C85.0794 8.16894 84.7206 7.39856 84.0604 6.84621C83.4002 6.26479 82.5535 5.97408 81.5202 5.97408C80.6304 5.97408 79.9128 6.22119 79.3675 6.71539C78.8221 7.18053 78.5494 7.8637 78.5494 8.7649C78.5494 9.75331 79.0087 10.5237 79.9272 11.076C80.8457 11.6284 82.2808 12.2243 84.2326 12.8639C86.1844 13.5325 87.7631 14.1721 88.9686 14.7826C90.2029 15.3931 91.2649 16.2797 92.1547 17.4426C93.0445 18.6054 93.4894 20.1026 93.4894 21.934C93.4894 23.6783 93.0445 25.2627 92.1547 26.6871C91.2936 28.1116 90.0306 29.2454 88.3659 30.0885C86.7011 30.9315 84.7349 31.353 82.4674 31.353Z" fill="#083C6E"/>
<path d="M122.002 31.0478L111.841 17.5298V31.0478H104.478V0.436064H111.841V13.8669L121.915 0.436064H130.569L118.859 15.4367L131 31.0478H122.002Z" fill="#083C6E"/>
<path d="M13.4202 47.5051C13.4202 48.3745 13.1242 49.0991 12.5322 49.6787C11.9501 50.2483 11.0571 50.5331 9.8534 50.5331H7.8702V54.8951H6.5234V44.4472H9.8534C11.0177 44.4472 11.9007 44.732 12.5026 45.3017C13.1143 45.8713 13.4202 46.6058 13.4202 47.5051ZM9.8534 49.4088C10.6033 49.4088 11.1558 49.2439 11.511 48.9142C11.8662 48.5844 12.0438 48.1147 12.0438 47.5051C12.0438 46.216 11.3137 45.5715 9.8534 45.5715H7.8702V49.4088H9.8534Z" fill="#083C6E"/>
<path d="M46.041 53.7858H49.6522V54.8951H44.6941V44.4472H46.041V53.7858Z" fill="#083C6E"/>
<path d="M81.9997 44.4472V51.0577C81.9997 51.9871 82.2217 52.6766 82.6657 53.1263C83.1195 53.576 83.7461 53.8008 84.5453 53.8008C85.3346 53.8008 85.9513 53.576 86.3953 53.1263C86.8492 52.6766 87.0761 51.9871 87.0761 51.0577V44.4472H88.4229V51.0427C88.4229 51.9121 88.2502 52.6466 87.9049 53.2462C87.5595 53.8358 87.0909 54.2755 86.4989 54.5653C85.9167 54.8551 85.2606 55 84.5305 55C83.8003 55 83.1393 54.8551 82.5473 54.5653C81.9651 54.2755 81.5014 53.8358 81.1561 53.2462C80.8206 52.6466 80.6529 51.9121 80.6529 51.0427V44.4472H81.9997Z" fill="#083C6E"/>
<path d="M123.54 55C122.86 55 122.248 54.8801 121.705 54.6402C121.172 54.3904 120.753 54.0507 120.447 53.6209C120.141 53.1812 119.983 52.6766 119.974 52.107H121.409C121.459 52.5966 121.656 53.0114 122.001 53.3511C122.356 53.6809 122.87 53.8458 123.54 53.8458C124.182 53.8458 124.685 53.6859 125.05 53.3661C125.425 53.0363 125.612 52.6166 125.612 52.107C125.612 51.7073 125.504 51.3825 125.287 51.1327C125.07 50.8828 124.798 50.693 124.473 50.563C124.147 50.4331 123.708 50.2932 123.156 50.1433C122.475 49.9635 121.927 49.7836 121.513 49.6037C121.108 49.4238 120.758 49.144 120.462 48.7643C120.176 48.3745 120.033 47.8549 120.033 47.2053C120.033 46.6357 120.176 46.1311 120.462 45.6914C120.748 45.2517 121.148 44.9119 121.661 44.6721C122.184 44.4323 122.781 44.3123 123.452 44.3123C124.419 44.3123 125.208 44.5572 125.82 45.0468C126.441 45.5365 126.792 46.186 126.87 46.9955H125.39C125.341 46.5958 125.134 46.246 124.769 45.9462C124.404 45.6364 123.92 45.4815 123.318 45.4815C122.756 45.4815 122.297 45.6314 121.942 45.9312C121.587 46.221 121.409 46.6307 121.409 47.1604C121.409 47.5401 121.513 47.8499 121.72 48.0897C121.937 48.3296 122.199 48.5145 122.504 48.6444C122.82 48.7643 123.259 48.9042 123.822 49.0641C124.502 49.2539 125.05 49.4438 125.464 49.6337C125.879 49.8136 126.234 50.0984 126.53 50.4881C126.826 50.8678 126.974 51.3875 126.974 52.047C126.974 52.5567 126.841 53.0363 126.574 53.486C126.308 53.9357 125.913 54.3005 125.39 54.5803C124.868 54.8601 124.251 55 123.54 55Z" fill="#083C6E"/>
<path d="M0 12.6513H15.4727V18.7835H0V12.6513Z" fill="#083C6E"/>
</svg>

<svg width="131" height="55" fill="none" xmlns="http://www.w3.org/2000/svg"><path d="M15.363.436c3.186 0 5.97.64 8.353 1.919 2.382 1.279 4.22 3.081 5.511 5.407 1.32 2.297 1.98 4.957 1.98 7.98 0 2.994-.66 5.654-1.98 7.98-1.292 2.326-3.143 4.128-5.554 5.407-2.382 1.28-5.152 1.919-8.31 1.919H4.04V.436h11.323zm-.473 24.158c2.784 0 4.951-.77 6.501-2.311 1.55-1.54 2.325-3.721 2.325-6.541 0-2.82-.775-5.015-2.325-6.585-1.55-1.57-3.717-2.354-6.501-2.354h-3.488v17.791h3.488zM49.142 6.41v6.192h9.86v5.756h-9.86v6.716h11.152v5.974H41.78V.436h18.514V6.41H49.143zM82.467 31.353c-2.21 0-4.19-.363-5.941-1.09-1.751-.727-3.157-1.803-4.22-3.227-1.033-1.425-1.578-3.14-1.636-5.146h7.836c.115 1.134.503 2.006 1.163 2.617.66.581 1.521.872 2.583.872 1.09 0 1.952-.247 2.583-.741.632-.524.948-1.236.948-2.137 0-.756-.259-1.38-.775-1.875-.488-.494-1.105-.901-1.852-1.221-.717-.32-1.75-.683-3.1-1.09-1.951-.61-3.544-1.221-4.779-1.832-1.234-.61-2.296-1.511-3.186-2.703-.89-1.192-1.334-2.748-1.334-4.666 0-2.85 1.018-5.073 3.056-6.672C75.851.814 78.506 0 81.778 0c3.33 0 6.014.814 8.052 2.442 2.038 1.599 3.128 3.837 3.272 6.715h-7.965c-.058-.988-.416-1.758-1.077-2.31-.66-.582-1.507-.873-2.54-.873-.89 0-1.607.247-2.152.741-.546.466-.819 1.149-.819 2.05 0 .988.46 1.759 1.378 2.311.919.552 2.354 1.148 4.306 1.788 1.951.668 3.53 1.308 4.736 1.919 1.234.61 2.296 1.497 3.186 2.66.89 1.162 1.334 2.66 1.334 4.491 0 1.744-.445 3.329-1.334 4.753-.861 1.425-2.124 2.558-3.79 3.401-1.664.843-3.63 1.265-5.898 1.265zM122.002 31.048 111.841 17.53v13.518h-7.363V.436h7.363v13.43L121.915.437h8.654l-11.71 15L131 31.049h-8.998zM13.42 47.505c0 .87-.296 1.594-.888 2.174-.582.57-1.475.854-2.679.854H7.87v4.362H6.523V44.447h3.33c1.165 0 2.048.285 2.65.855.611.57.917 1.304.917 2.203zM9.853 49.41c.75 0 1.303-.165 1.658-.495.355-.33.533-.8.533-1.409 0-1.289-.73-1.934-2.19-1.934H7.87v3.838h1.983zM46.041 53.786h3.611v1.11h-4.958V44.446h1.347v9.339zM82 44.447v6.61c0 .93.222 1.62.666 2.07.454.449 1.08.674 1.88.674.789 0 1.405-.225 1.85-.675.453-.45.68-1.139.68-2.068v-6.61h1.347v6.595c0 .87-.173 1.604-.518 2.203a3.27 3.27 0 0 1-1.406 1.32c-.582.29-1.238.434-1.968.434s-1.392-.145-1.984-.435a3.29 3.29 0 0 1-1.39-1.319c-.336-.6-.504-1.334-.504-2.203v-6.596H82zM123.54 55c-.68 0-1.292-.12-1.835-.36-.533-.25-.952-.59-1.258-1.02a2.662 2.662 0 0 1-.473-1.513h1.435c.05.49.247.904.592 1.244.355.33.869.495 1.539.495.642 0 1.145-.16 1.51-.48.375-.33.562-.75.562-1.259 0-.4-.108-.724-.325-.974a2.084 2.084 0 0 0-.814-.57c-.326-.13-.765-.27-1.317-.42-.681-.18-1.229-.36-1.643-.54a2.731 2.731 0 0 1-1.051-.839c-.286-.39-.429-.91-.429-1.559 0-.57.143-1.074.429-1.514.286-.44.686-.78 1.199-1.019.523-.24 1.12-.36 1.791-.36.967 0 1.756.245 2.368.735.621.49.972 1.139 1.05 1.949h-1.48c-.049-.4-.256-.75-.621-1.05-.365-.31-.849-.465-1.451-.465-.562 0-1.021.15-1.376.45-.355.29-.533.7-.533 1.23 0 .38.104.689.311.929.217.24.479.424.784.554.316.12.755.26 1.318.42.68.19 1.228.38 1.642.57.415.18.77.464 1.066.854.296.38.444.9.444 1.559 0 .51-.133.99-.4 1.439-.266.45-.661.815-1.184 1.094-.522.28-1.139.42-1.85.42z" fill="#083C6E"/><path d="M0 12.651h15.473v6.133H0V12.65z" fill="#083C6E"/></svg>
